modules/hawcons-filled/icons/icon-23-cloud-error.svg

<?xml version="1.0" encoding="UTF-8" standalone="no"?>
<svg width="32px" height="32px" viewBox="0 0 32 32" version="1.1" xmlns="http://www.w3.org/2000/svg" xmlns:xlink="http://www.w3.org/1999/xlink" xmlns:sketch="http://www.bohemiancoding.com/sketch/ns">
    <!-- Generator: Sketch 3.0.3 (7891) - http://www.bohemiancoding.com/sketch -->
    <title>icon 23 cloud error</title>
    <desc>Created with Sketch.</desc>
    <defs></defs>
    <g id="Page-1" stroke="none" stroke-width="1" fill="none" fill-rule="evenodd" sketch:type="MSPage">
        <g id="icon-23-cloud-error" sketch:type="MSArtboardGroup" fill="#929292">
            <path d="M16.5,21 C16.2238576,21 16,20.7680664 16,20.5 C16,20.2238576 16.2319336,20 16.5,20 C16.7761424,20 17,20.2319336 17,20.5 C17,20.7761424 16.7680664,21 16.5,21 L16.5,21 Z M26.9993494,14.4145295 C28.7676457,15.1852931 30,16.9483386 30,19 C30,21.7558048 27.7616745,24 25.0005601,24 L7.99943992,24 C5.23249418,24 3,21.7614237 3,19 C3,16.9491311 4.23965876,15.1816085 6.01189661,14.4115388 L6.01189661,14.4115388 C6.00400207,14.275367 6,14.1381509 6,14 C6,10.1340066 9.13400656,7 13,7 C15.2979469,7 17.3372745,8.10728055 18.6135384,9.81739735 C19.4525719,9.29909701 20.441357,9 21.5,9 C24.5090248,9 26.9536744,11.4163763 26.9993494,14.4145295 L26.9993494,14.4145295 L26.9993494,14.4145295 Z M16.5,13 C16.2238576,13 16,13.2278805 16,13.4910052 L16,18.5089948 C16,18.7801695 16.2319336,19 16.5,19 C16.7761424,19 17,18.7721195 17,18.5089948 L17,13.4910052 C17,13.2198305 16.7680664,13 16.5,13 L16.5,13 Z" id="cloud-error" sketch:type="MSShapeGroup"></path>
        </g>
    </g>
</svg>

<svg width="32" height="32" xmlns="http://www.w3.org/2000/svg"><path d="M16.5 21a.505.505 0 0 1-.5-.5c0-.276.232-.5.5-.5.276 0 .5.232.5.5 0 .276-.232.5-.5.5zM27 14.415c1.768.77 3 2.533 3 4.585 0 2.756-2.238 5-5 5H8c-2.768 0-5-2.239-5-5 0-2.05 1.24-3.818 3.012-4.588a7 7 0 0 1 12.602-4.594A5.5 5.5 0 0 1 27 14.414zM16.5 13a.5.5 0 0 0-.5.491v5.018a.5.5 0 0 0 1 0v-5.018a.5.5 0 0 0-.5-.491z" fill="#929292" fill-rule="evenodd"/></svg>
